X: 6
T: No_104_Smoking_Song_(b).krn
N: Derived from No_104_Smoking_Song_(b).krn
%%abc-version 2.0
%%abcx-abcm2ps-target-version 5.9.1 (29 Sep 2008)
%%abc-creator hum2abc beta
%%abcx-conversion-date 2019/03/15 08:36:49
%%humdrum-veritas 1685840168
%%humdrum-veritas-data 399653428
%%linebreak <none>
%%barnumbers 0
L: 1/8
M: 3/4
%%staves {1 2}
V: 1 clef=bass
V: 2 clef=bass
K: B
[V:1] [K:clef=bass][M:3/4]D3/B,/D2D2 | 
[V:2] [K:clef=bass][M:3/4]G,,2G,,2G,,2 | 
[V:1] B,/B,/G,/B,/B,4 | 
[V:2] G,,2G,,2G,,2 | 
[V:1] (3DB,D-D2D2 ||  
[V:2] z6 ||  
[V:1] [M:2/4]B,/B,/G,/B,/B,2 | 
[V:2] [M:2/4]z4 | 
[V:1] B,2B,2 | 
[V:2] z4 | 
[V:1] (3G,D,G,G,2 | 
[V:2] z4 | 
[V:1] G,2G,G, ||  
[V:2] z4 ||  
[V:1] [M:3/4](3B,G,B,B,2B,2 | 
[V:2] [M:3/4]z6 | 
[V:1] (3G,D,G,G,2G,2 ||  
[V:2] z6 ||  
[V:1] [M:2/4](3D,C,D,D,2 ||  
[V:2] [M:2/4]z4 ||  
[V:1] [M:3/4]D,C,C,4 | 
[V:2] [M:3/4]z6 | 
[V:1] G,2G,G,G,2 ||  
[V:2] z6 ||  
[V:1] [M:2/4](3D,C,D,D,2 ||  
[V:2] [M:2/4]z4 ||  
[V:1] [M:3/4]D,C,C,4 | 
[V:2] [M:3/4]z6 | 
[V:1] D,C,D,3D, | 
[V:2] z6 | 
[V:1] D,6 |]  
[V:2] z6 |]  



